Newaita-dark/apps/32/stage.svg

<svg height="32" viewBox="0 0 32 32" width="32" xmlns="http://www.w3.org/2000/svg" xmlns:xlink="http://www.w3.org/1999/xlink"><linearGradient id="a" gradientUnits="userSpaceOnUse" x1="15.87652" x2="15.87652" y1="28.033936" y2="29.35698000003"><stop offset="0" stop-opacity=".27451"/><stop offset="1" stop-opacity="0"/></linearGradient><linearGradient id="b"><stop offset="0" stop-opacity=".313726"/><stop offset=".222222" stop-opacity=".27451"/><stop offset="1" stop-opacity="0"/></linearGradient><radialGradient id="c" cx="450.908936" cy="189.579361" gradientTransform="matrix(.00000017 -.0781325 -.140638 -.0000001 53.12293 63.595333)" gradientUnits="userSpaceOnUse" r="21.166656" xlink:href="#b"/><radialGradient id="d" cx="450.908936" cy="189.579361" gradientTransform="matrix(-.00000017 .0781325 .140638 .0000001 -21.20452 -7.527479)" gradientUnits="userSpaceOnUse" r="21.166656" xlink:href="#b"/><radialGradient id="e" cx="450.908936" cy="189.579361" gradientTransform="matrix(-.00000017 -.0781325 .140638 -.0000001 -21.20452 63.595333)" gradientUnits="userSpaceOnUse" r="21.166656" xlink:href="#b"/><radialGradient id="f" cx="450.908936" cy="189.579361" gradientTransform="matrix(.00000017 .0781325 -.140638 .0000001 53.122929 -7.527479)" gradientUnits="userSpaceOnUse" r="21.166656" xlink:href="#b"/><linearGradient id="g" gradientUnits="userSpaceOnUse" x1="15.876524" x2="15.876524" y1="2.97879400006" y2="28.116623"><stop offset="0" stop-color="#eee"/><stop offset="1" stop-color="#e0e0e0"/></linearGradient><linearGradient id="h" gradientUnits="userSpaceOnUse" x1="16.53804800006" x2="16.53804800006" y1="21.41871543757" y2="6.86523500006"><stop offset="0" stop-color="#ef5350"/><stop offset="1" stop-color="#e57373"/></linearGradient><linearGradient id="i" gradientUnits="userSpaceOnUse" x1="23.15325949994" x2="23.15326143762" y1="21.41871499994" y2="6.86523456243"><stop offset="0" stop-color="#66bb6a"/><stop offset="1" stop-color="#81c784"/></linearGradient><linearGradient id="j" gradientUnits="userSpaceOnUse" x1="7.93826449994" x2="7.93826643762" y1="21.41871099994" y2="6.86523531288"><stop offset="0" stop-color="#26a69a"/><stop offset="1" stop-color="#4db6ac"/></linearGradient><linearGradient id="k" gradientUnits="userSpaceOnUse" x1="13.23043749994" x2="13.23044137531" y1="21.41871599994" y2="6.86523700006"><stop offset="0" stop-color="#ffa726"/><stop offset="1" stop-color="#ffb74d"/></linearGradient><path d="m5.125 28.035156h21.667969v1.320313h-21.667969zm0 0" fill="url(#a)"/><path d="m26.792969 28.035156h2.644531v-1.324218h-2.644531zm0 0" fill="url(#c)"/><path d="m5.125 28.035156h-2.644531v1.320313h2.644531zm0 0" fill="url(#d)"/><path d="m5.125 28.035156h-2.644531v-1.324218h2.644531zm0 0" fill="url(#e)"/><path d="m26.792969 28.035156h2.644531v1.320313h-2.644531zm0 0" fill="url(#f)"/><path d="m3.636719 2.980469h24.476562c.550781 0 .992188.441406.992188.992187v23.152344c0 .546875-.441407.992188-.992188.992188h-24.476562c-.546875 0-.992188-.445313-.992188-.992188v-23.152344c0-.550781.445313-.992187.992188-.992187zm0 0" fill="url(#g)"/><path d="m3.636719 28.117188c-.546875 0-.992188-.441407-.992188-.992188v-.414062c0 .550781.445313.992187.992188.992187h24.476562c.550781 0 .992188-.441406.992188-.992187v.414062c0 .550781-.441407.992188-.992188.992188zm0 0" fill-opacity=".235294"/><path d="m3.636719 2.980469c-.546875 0-.992188.441406-.992188.992187v.410156c0-.546874.445313-.992187.992188-.992187h24.476562c.550781 0 .992188.445313.992188.992187v-.410156c0-.550781-.441407-.992187-.992188-.992187zm0 0" fill="#fff"/><path d="m3.636719 2.800781c-.597657 0-1.085938.488281-1.085938 1.085938v23.15625c0 .597656.488281 1.085937 1.085938 1.085937h24.476562c.601563 0 1.085938-.488281 1.085938-1.085937v-23.15625c0-.597657-.484375-1.085938-1.085938-1.085938zm0 .1875h24.476562c.5 0 .898438.402344.898438.898438v23.15625c0 .5-.398438.898437-.898438.898437h-24.476562c-.496094 0-.898438-.398437-.898438-.898437v-23.15625c0-.496094.402344-.898438.898438-.898438zm0 0" fill="#212121"/><path d="m17.199219 17.449219h2.644531c.367188 0 .664062.296875.664062.660156v2.648437c0 .363282-.296874.660157-.664062.660157h-2.644531c-.363281 0-.660157-.296875-.660157-.660157v-2.648437c0-.363281.296876-.660156.660157-.660156zm0 0" fill="url(#h)"/><path d="m22.492188 8.851562h2.644531c.367187 0 .664062.292969.664062.660157v11.246093c0 .363282-.296875.660157-.664062.660157h-2.644531c-.367188 0-.660157-.296875-.660157-.660157v-11.246093c0-.367188.292969-.660157.660157-.660157zm0 0" fill="url(#i)"/><path d="m6.613281 6.867188h2.648438c.363281 0 .660156.292968.660156.660156v13.230468c0 .363282-.296875.660157-.660156.660157h-2.648438c-.363281 0-.660156-.296875-.660156-.660157v-13.230468c0-.367188.296875-.660156.660156-.660156zm0 0" fill="url(#j)"/><path d="m11.90625 13.480469h2.648438c.363281 0 .660156.296875.660156.660156v6.617187c0 .363282-.296875.660157-.660156.660157h-2.648438c-.363281 0-.660156-.296875-.660156-.660157v-6.617187c0-.363281.296875-.660156.660156-.660156zm0 0" fill="url(#k)"/><path d="m6.613281 6.863281c-.363281 0-.660156.296875-.660156.664063v.332031c0-.367187.296875-.664063.660156-.664063h2.648438c.367187 0 .660156.296876.660156.664063v-.332031c0-.367188-.292969-.664063-.660156-.664063zm15.878907 1.988281c-.367188 0-.660157.292969-.660157.660157v.332031c0-.367188.292969-.664062.660157-.664062h2.644531c.367187 0 .664062.296874.664062.664062v-.332031c0-.367188-.296875-.660157-.664062-.660157zm-10.585938 4.628907c-.367188 0-.660156.296875-.660156.660156v.332031c0-.367187.292968-.660156.660156-.660156h2.648438c.367187 0 .660156.292969.660156.660156v-.332031c0-.363281-.292969-.660156-.660156-.660156zm5.292969 3.96875c-.367188 0-.660157.296875-.660157.660156v.332031c0-.367187.292969-.660156.660157-.660156h2.644531c.367188 0 .664062.292969.664062.660156v-.332031c0-.363281-.296874-.660156-.664062-.660156zm0 0" fill="#fff" fill-opacity=".392157"/><path d="m5.953125 20.757812v.660157c0 .367187.296875.664062.660156.664062h2.648438c.367187 0 .660156-.296875.660156-.664062v-.660157c0 .367188-.292969.660157-.660156.660157h-2.648438c-.363281 0-.660156-.292969-.660156-.660157zm5.292969 0v.660157c0 .367187.292968.664062.660156.664062h2.648438c.367187 0 .660156-.296875.660156-.664062v-.660157c0 .367188-.292969.660157-.660156.660157h-2.648438c-.367188 0-.660156-.292969-.660156-.660157zm5.292968 0v.660157c0 .367187.292969.664062.660157.664062h2.644531c.367188 0 .664062-.296875.664062-.664062v-.660157c0 .367188-.296874.660157-.664062.660157h-2.644531c-.367188 0-.660157-.292969-.660157-.660157zm5.292969 0v.660157c0 .367187.292969.664062.660157.664062h2.644531c.367187 0 .664062-.296875.664062-.664062v-.660157c0 .367188-.296875.660157-.664062.660157h-2.644531c-.367188 0-.660157-.292969-.660157-.660157zm0 0" fill-opacity=".235294"/><g fill="none" stroke="#212121" stroke-linejoin="round" stroke-width="3" transform="matrix(.062506 0 0 .062506 0 13.438783)"><path d="m275.161223 64.160841h42.30846c5.874439 0 10.623986 4.749547 10.623986 10.561492v42.370954c0 5.811945-4.749547 10.561491-10.623986 10.561491h-42.30846c-5.811945 0-10.561491-4.749546-10.561491-10.561491v-42.370954c0-5.811945 4.749546-10.561492 10.561491-10.561492zm0 0"/><path d="m359.840637-73.388523h42.30846c5.874439 0 10.623985 4.687052 10.623985 10.561491v179.920319c0 5.811945-4.749546 10.561491-10.623985 10.561491h-42.30846c-5.874439 0-10.561491-4.749546-10.561491-10.561491v-179.920319c0-5.874439 4.687052-10.561491 10.561491-10.561491zm0 0"/><path d="m105.802396-105.135492h42.370954c5.811945 0 10.561492 4.687053 10.561492 10.561492v211.667287c0 5.811945-4.749547 10.561491-10.561492 10.561491h-42.370954c-5.811945 0-10.561491-4.749546-10.561491-10.561491v-211.667287c0-5.874439 4.749546-10.561492 10.561491-10.561492zm0 0"/><path d="m190.48181.666905h42.370954c5.811945 0 10.561491 4.749546 10.561491 10.561491v105.864891c0 5.811945-4.749546 10.561491-10.561491 10.561491h-42.370954c-5.811945 0-10.561492-4.749546-10.561492-10.561491v-105.864891c0-5.811945 4.749547-10.561491 10.561492-10.561491zm0 0"/></g></svg>

<?xml version="1.0" encoding="UTF-8"?>
<svg xmlns="http://www.w3.org/2000/svg" xmlns:xlink="http://www.w3.org/1999/xlink" width="32px" height="32px" viewBox="0 0 32 32" version="1.1">
<defs>
<linearGradient id="linear0" gradientUnits="userSpaceOnUse" x1="254" y1="233.5" x2="254" y2="254.666672" gradientTransform="matrix(0.062506,0,0,0.062506,-0.00000381506,13.438785)">
<stop offset="0" style="stop-color:rgb(0%,0%,0%);stop-opacity:0.27451;"/>
<stop offset="1" style="stop-color:rgb(0%,0%,0%);stop-opacity:0;"/>
</linearGradient>
<radialGradient id="radial0" gradientUnits="userSpaceOnUse" cx="450.908936" cy="189.579361" fx="450.908936" fy="189.579361" r="21.166656" gradientTransform="matrix(0.00000017417,-0.0781325,-0.140638,-0.000000101539,53.12293,63.595333)">
<stop offset="0" style="stop-color:rgb(0%,0%,0%);stop-opacity:0.313726;"/>
<stop offset="0.222222" style="stop-color:rgb(0%,0%,0%);stop-opacity:0.27451;"/>
<stop offset="1" style="stop-color:rgb(0%,0%,0%);stop-opacity:0;"/>
</radialGradient>
<radialGradient id="radial1" gradientUnits="userSpaceOnUse" cx="450.908936" cy="189.579361" fx="450.908936" fy="189.579361" r="21.166656" gradientTransform="matrix(-0.00000017417,0.0781325,0.140638,0.000000101539,-21.20452,-7.527479)">
<stop offset="0" style="stop-color:rgb(0%,0%,0%);stop-opacity:0.313726;"/>
<stop offset="0.222222" style="stop-color:rgb(0%,0%,0%);stop-opacity:0.27451;"/>
<stop offset="1" style="stop-color:rgb(0%,0%,0%);stop-opacity:0;"/>
</radialGradient>
<radialGradient id="radial2" gradientUnits="userSpaceOnUse" cx="450.908936" cy="189.579361" fx="450.908936" fy="189.579361" r="21.166656" gradientTransform="matrix(-0.00000017417,-0.0781325,0.140638,-0.000000101539,-21.20452,63.595333)">
<stop offset="0" style="stop-color:rgb(0%,0%,0%);stop-opacity:0.313726;"/>
<stop offset="0.222222" style="stop-color:rgb(0%,0%,0%);stop-opacity:0.27451;"/>
<stop offset="1" style="stop-color:rgb(0%,0%,0%);stop-opacity:0;"/>
</radialGradient>
<radialGradient id="radial3" gradientUnits="userSpaceOnUse" cx="450.908936" cy="189.579361" fx="450.908936" fy="189.579361" r="21.166656" gradientTransform="matrix(0.00000017417,0.0781325,-0.140638,0.000000101539,53.122929,-7.527479)">
<stop offset="0" style="stop-color:rgb(0%,0%,0%);stop-opacity:0.313726;"/>
<stop offset="0.222222" style="stop-color:rgb(0%,0%,0%);stop-opacity:0.27451;"/>
<stop offset="1" style="stop-color:rgb(0%,0%,0%);stop-opacity:0;"/>
</radialGradient>
<linearGradient id="linear1" gradientUnits="userSpaceOnUse" x1="254" y1="-168.666656" x2="254" y2="233.5" gradientTransform="matrix(0.062506,0,0,0.062506,0,13.521472)">
<stop offset="0" style="stop-color:rgb(93.333334%,93.333334%,93.333334%);stop-opacity:1;"/>
<stop offset="1" style="stop-color:rgb(87.843138%,87.843138%,87.843138%);stop-opacity:1;"/>
</linearGradient>
<linearGradient id="linear2" gradientUnits="userSpaceOnUse" x1="296.333344" y1="127.666679" x2="296.333344" y2="-105.166656" gradientTransform="matrix(0.062506,0,0,0.062506,-1.984564,13.438782)">
<stop offset="0" style="stop-color:rgb(93.725491%,32.549021%,31.37255%);stop-opacity:1;"/>
<stop offset="1" style="stop-color:rgb(89.803922%,45.09804%,45.09804%);stop-opacity:1;"/>
</linearGradient>
<linearGradient id="linear3" gradientUnits="userSpaceOnUse" x1="306.916656" y1="127.666656" x2="306.916687" y2="-105.166679" gradientTransform="matrix(0.062506,0,0,0.062506,3.969127,13.438783)">
<stop offset="0" style="stop-color:rgb(40.000001%,73.333335%,41.568628%);stop-opacity:1;"/>
<stop offset="1" style="stop-color:rgb(50.588238%,78.039217%,51.764709%);stop-opacity:1;"/>
</linearGradient>
<linearGradient id="linear4" gradientUnits="userSpaceOnUse" x1="306.916656" y1="127.666656" x2="306.916687" y2="-105.166603" gradientTransform="matrix(0.062506,0,0,0.062506,-11.245868,13.438779)">
<stop offset="0" style="stop-color:rgb(14.901961%,65.098041%,60.392159%);stop-opacity:1;"/>
<stop offset="1" style="stop-color:rgb(30.19608%,71.372551%,67.450982%);stop-opacity:1;"/>
</linearGradient>
<linearGradient id="linear5" gradientUnits="userSpaceOnUse" x1="306.916656" y1="127.666656" x2="306.916718" y2="-105.166656" gradientTransform="matrix(0.062506,0,0,0.062506,-5.953695,13.438784)">
<stop offset="0" style="stop-color:rgb(100%,65.490198%,14.901961%);stop-opacity:1;"/>
<stop offset="1" style="stop-color:rgb(100%,71.764708%,30.19608%);stop-opacity:1;"/>
</linearGradient>
</defs>
<g id="surface1">
<path style=" stroke:none;fill-rule:nonzero;fill:url(#linear0);" d="M 5.125 28.035156 L 26.792969 28.035156 L 26.792969 29.355469 L 5.125 29.355469 Z M 5.125 28.035156 "/>
<path style=" stroke:none;fill-rule:nonzero;fill:url(#radial0);" d="M 26.792969 28.035156 L 29.4375 28.035156 L 29.4375 26.710938 L 26.792969 26.710938 Z M 26.792969 28.035156 "/>
<path style=" stroke:none;fill-rule:nonzero;fill:url(#radial1);" d="M 5.125 28.035156 L 2.480469 28.035156 L 2.480469 29.355469 L 5.125 29.355469 Z M 5.125 28.035156 "/>
<path style=" stroke:none;fill-rule:nonzero;fill:url(#radial2);" d="M 5.125 28.035156 L 2.480469 28.035156 L 2.480469 26.710938 L 5.125 26.710938 Z M 5.125 28.035156 "/>
<path style=" stroke:none;fill-rule:nonzero;fill:url(#radial3);" d="M 26.792969 28.035156 L 29.4375 28.035156 L 29.4375 29.355469 L 26.792969 29.355469 Z M 26.792969 28.035156 "/>
<path style=" stroke:none;fill-rule:nonzero;fill:url(#linear1);" d="M 3.636719 2.980469 L 28.113281 2.980469 C 28.664062 2.980469 29.105469 3.421875 29.105469 3.972656 L 29.105469 27.125 C 29.105469 27.671875 28.664062 28.117188 28.113281 28.117188 L 3.636719 28.117188 C 3.089844 28.117188 2.644531 27.671875 2.644531 27.125 L 2.644531 3.972656 C 2.644531 3.421875 3.089844 2.980469 3.636719 2.980469 Z M 3.636719 2.980469 "/>
<path style=" stroke:none;fill-rule:nonzero;fill:rgb(0%,0%,0%);fill-opacity:0.235294;" d="M 3.636719 28.117188 C 3.089844 28.117188 2.644531 27.675781 2.644531 27.125 L 2.644531 26.710938 C 2.644531 27.261719 3.089844 27.703125 3.636719 27.703125 L 28.113281 27.703125 C 28.664062 27.703125 29.105469 27.261719 29.105469 26.710938 L 29.105469 27.125 C 29.105469 27.675781 28.664062 28.117188 28.113281 28.117188 Z M 3.636719 28.117188 "/>
<path style=" stroke:none;fill-rule:nonzero;fill:rgb(100%,100%,100%);fill-opacity:1;" d="M 3.636719 2.980469 C 3.089844 2.980469 2.644531 3.421875 2.644531 3.972656 L 2.644531 4.382812 C 2.644531 3.835938 3.089844 3.390625 3.636719 3.390625 L 28.113281 3.390625 C 28.664062 3.390625 29.105469 3.835938 29.105469 4.382812 L 29.105469 3.972656 C 29.105469 3.421875 28.664062 2.980469 28.113281 2.980469 Z M 3.636719 2.980469 "/>
<path style=" stroke:none;fill-rule:nonzero;fill:rgb(12.941177%,12.941177%,12.941177%);fill-opacity:1;" d="M 3.636719 2.800781 C 3.039062 2.800781 2.550781 3.289062 2.550781 3.886719 L 2.550781 27.042969 C 2.550781 27.640625 3.039062 28.128906 3.636719 28.128906 L 28.113281 28.128906 C 28.714844 28.128906 29.199219 27.640625 29.199219 27.042969 L 29.199219 3.886719 C 29.199219 3.289062 28.714844 2.800781 28.113281 2.800781 Z M 3.636719 2.988281 L 28.113281 2.988281 C 28.613281 2.988281 29.011719 3.390625 29.011719 3.886719 L 29.011719 27.042969 C 29.011719 27.542969 28.613281 27.941406 28.113281 27.941406 L 3.636719 27.941406 C 3.140625 27.941406 2.738281 27.542969 2.738281 27.042969 L 2.738281 3.886719 C 2.738281 3.390625 3.140625 2.988281 3.636719 2.988281 Z M 3.636719 2.988281 "/>
<path style=" stroke:none;fill-rule:nonzero;fill:url(#linear2);" d="M 17.199219 17.449219 L 19.84375 17.449219 C 20.210938 17.449219 20.507812 17.746094 20.507812 18.109375 L 20.507812 20.757812 C 20.507812 21.121094 20.210938 21.417969 19.84375 21.417969 L 17.199219 21.417969 C 16.835938 21.417969 16.539062 21.121094 16.539062 20.757812 L 16.539062 18.109375 C 16.539062 17.746094 16.835938 17.449219 17.199219 17.449219 Z M 17.199219 17.449219 "/>
<path style=" stroke:none;fill-rule:nonzero;fill:url(#linear3);" d="M 22.492188 8.851562 L 25.136719 8.851562 C 25.503906 8.851562 25.800781 9.144531 25.800781 9.511719 L 25.800781 20.757812 C 25.800781 21.121094 25.503906 21.417969 25.136719 21.417969 L 22.492188 21.417969 C 22.125 21.417969 21.832031 21.121094 21.832031 20.757812 L 21.832031 9.511719 C 21.832031 9.144531 22.125 8.851562 22.492188 8.851562 Z M 22.492188 8.851562 "/>
<path style=" stroke:none;fill-rule:nonzero;fill:url(#linear4);" d="M 6.613281 6.867188 L 9.261719 6.867188 C 9.625 6.867188 9.921875 7.160156 9.921875 7.527344 L 9.921875 20.757812 C 9.921875 21.121094 9.625 21.417969 9.261719 21.417969 L 6.613281 21.417969 C 6.25 21.417969 5.953125 21.121094 5.953125 20.757812 L 5.953125 7.527344 C 5.953125 7.160156 6.25 6.867188 6.613281 6.867188 Z M 6.613281 6.867188 "/>
<path style=" stroke:none;fill-rule:nonzero;fill:url(#linear5);" d="M 11.90625 13.480469 L 14.554688 13.480469 C 14.917969 13.480469 15.214844 13.777344 15.214844 14.140625 L 15.214844 20.757812 C 15.214844 21.121094 14.917969 21.417969 14.554688 21.417969 L 11.90625 21.417969 C 11.542969 21.417969 11.246094 21.121094 11.246094 20.757812 L 11.246094 14.140625 C 11.246094 13.777344 11.542969 13.480469 11.90625 13.480469 Z M 11.90625 13.480469 "/>
<path style=" stroke:none;fill-rule:nonzero;fill:rgb(100%,100%,100%);fill-opacity:0.392157;" d="M 6.613281 6.863281 C 6.25 6.863281 5.953125 7.160156 5.953125 7.527344 L 5.953125 7.859375 C 5.953125 7.492188 6.25 7.195312 6.613281 7.195312 L 9.261719 7.195312 C 9.628906 7.195312 9.921875 7.492188 9.921875 7.859375 L 9.921875 7.527344 C 9.921875 7.160156 9.628906 6.863281 9.261719 6.863281 Z M 22.492188 8.851562 C 22.125 8.851562 21.832031 9.144531 21.832031 9.511719 L 21.832031 9.84375 C 21.832031 9.476562 22.125 9.179688 22.492188 9.179688 L 25.136719 9.179688 C 25.503906 9.179688 25.800781 9.476562 25.800781 9.84375 L 25.800781 9.511719 C 25.800781 9.144531 25.503906 8.851562 25.136719 8.851562 Z M 11.90625 13.480469 C 11.539062 13.480469 11.246094 13.777344 11.246094 14.140625 L 11.246094 14.472656 C 11.246094 14.105469 11.539062 13.8125 11.90625 13.8125 L 14.554688 13.8125 C 14.921875 13.8125 15.214844 14.105469 15.214844 14.472656 L 15.214844 14.140625 C 15.214844 13.777344 14.921875 13.480469 14.554688 13.480469 Z M 17.199219 17.449219 C 16.832031 17.449219 16.539062 17.746094 16.539062 18.109375 L 16.539062 18.441406 C 16.539062 18.074219 16.832031 17.78125 17.199219 17.78125 L 19.84375 17.78125 C 20.210938 17.78125 20.507812 18.074219 20.507812 18.441406 L 20.507812 18.109375 C 20.507812 17.746094 20.210938 17.449219 19.84375 17.449219 Z M 17.199219 17.449219 "/>
<path style=" stroke:none;fill-rule:nonzero;fill:rgb(0%,0%,0%);fill-opacity:0.235294;" d="M 5.953125 20.757812 L 5.953125 21.417969 C 5.953125 21.785156 6.25 22.082031 6.613281 22.082031 L 9.261719 22.082031 C 9.628906 22.082031 9.921875 21.785156 9.921875 21.417969 L 9.921875 20.757812 C 9.921875 21.125 9.628906 21.417969 9.261719 21.417969 L 6.613281 21.417969 C 6.25 21.417969 5.953125 21.125 5.953125 20.757812 Z M 11.246094 20.757812 L 11.246094 21.417969 C 11.246094 21.785156 11.539062 22.082031 11.90625 22.082031 L 14.554688 22.082031 C 14.921875 22.082031 15.214844 21.785156 15.214844 21.417969 L 15.214844 20.757812 C 15.214844 21.125 14.921875 21.417969 14.554688 21.417969 L 11.90625 21.417969 C 11.539062 21.417969 11.246094 21.125 11.246094 20.757812 Z M 16.539062 20.757812 L 16.539062 21.417969 C 16.539062 21.785156 16.832031 22.082031 17.199219 22.082031 L 19.84375 22.082031 C 20.210938 22.082031 20.507812 21.785156 20.507812 21.417969 L 20.507812 20.757812 C 20.507812 21.125 20.210938 21.417969 19.84375 21.417969 L 17.199219 21.417969 C 16.832031 21.417969 16.539062 21.125 16.539062 20.757812 Z M 21.832031 20.757812 L 21.832031 21.417969 C 21.832031 21.785156 22.125 22.082031 22.492188 22.082031 L 25.136719 22.082031 C 25.503906 22.082031 25.800781 21.785156 25.800781 21.417969 L 25.800781 20.757812 C 25.800781 21.125 25.503906 21.417969 25.136719 21.417969 L 22.492188 21.417969 C 22.125 21.417969 21.832031 21.125 21.832031 20.757812 Z M 21.832031 20.757812 "/>
<path style="fill:none;stroke-width:3;stroke-linecap:butt;stroke-linejoin:round;stroke:rgb(12.941177%,12.941177%,12.941177%);stroke-opacity:1;stroke-miterlimit:4;" d="M 275.161223 64.160841 L 317.469683 64.160841 C 323.344122 64.160841 328.093669 68.910388 328.093669 74.722333 L 328.093669 117.093287 C 328.093669 122.905232 323.344122 127.654778 317.469683 127.654778 L 275.161223 127.654778 C 269.349278 127.654778 264.599732 122.905232 264.599732 117.093287 L 264.599732 74.722333 C 264.599732 68.910388 269.349278 64.160841 275.161223 64.160841 Z M 275.161223 64.160841 " transform="matrix(0.062506,0,0,0.062506,0,13.438783)"/>
<path style="fill:none;stroke-width:3;stroke-linecap:butt;stroke-linejoin:round;stroke:rgb(12.941177%,12.941177%,12.941177%);stroke-opacity:1;stroke-miterlimit:4;" d="M 359.840637 -73.388523 L 402.149097 -73.388523 C 408.023536 -73.388523 412.773082 -68.701471 412.773082 -62.827032 L 412.773082 117.093287 C 412.773082 122.905232 408.023536 127.654778 402.149097 127.654778 L 359.840637 127.654778 C 353.966198 127.654778 349.279146 122.905232 349.279146 117.093287 L 349.279146 -62.827032 C 349.279146 -68.701471 353.966198 -73.388523 359.840637 -73.388523 Z M 359.840637 -73.388523 " transform="matrix(0.062506,0,0,0.062506,0,13.438783)"/>
<path style="fill:none;stroke-width:3;stroke-linecap:butt;stroke-linejoin:round;stroke:rgb(12.941177%,12.941177%,12.941177%);stroke-opacity:1;stroke-miterlimit:4;" d="M 105.802396 -105.135492 L 148.17335 -105.135492 C 153.985295 -105.135492 158.734842 -100.448439 158.734842 -94.574 L 158.734842 117.093287 C 158.734842 122.905232 153.985295 127.654778 148.17335 127.654778 L 105.802396 127.654778 C 99.990451 127.654778 95.240905 122.905232 95.240905 117.093287 L 95.240905 -94.574 C 95.240905 -100.448439 99.990451 -105.135492 105.802396 -105.135492 Z M 105.802396 -105.135492 " transform="matrix(0.062506,0,0,0.062506,0,13.438783)"/>
<path style="fill:none;stroke-width:3;stroke-linecap:butt;stroke-linejoin:round;stroke:rgb(12.941177%,12.941177%,12.941177%);stroke-opacity:1;stroke-miterlimit:4;" d="M 190.48181 0.666905 L 232.852764 0.666905 C 238.664709 0.666905 243.414255 5.416451 243.414255 11.228396 L 243.414255 117.093287 C 243.414255 122.905232 238.664709 127.654778 232.852764 127.654778 L 190.48181 127.654778 C 184.669865 127.654778 179.920318 122.905232 179.920318 117.093287 L 179.920318 11.228396 C 179.920318 5.416451 184.669865 0.666905 190.48181 0.666905 Z M 190.48181 0.666905 " transform="matrix(0.062506,0,0,0.062506,0,13.438783)"/>
</g>
</svg>
